src/lib/packages/icons/src/assets/filled/arrow-up-left-square.svg

<svg width="24" height="24" viewBox="0 0 24 24" fill="none" xmlns="http://www.w3.org/2000/svg">
<path d="M17.625 3H6.375C4.125 3 3 4.125 3 6.375V17.625C3 19.875 4.125 21 6.375 21H17.625C19.875 21 21 19.875 21 17.625V6.375C21 4.125 19.875 3 17.625 3ZM15.53 15.5359C15.384 15.6819 15.192 15.7561 15 15.7561C14.808 15.7561 14.616 15.6829 14.47 15.5359L9.75 10.8159V13.0049C9.75 13.4189 9.414 13.7549 9 13.7549C8.586 13.7549 8.25 13.4189 8.25 13.0049V9.00488C8.25 8.90688 8.27011 8.81002 8.30811 8.71802C8.38411 8.53502 8.53011 8.38901 8.71411 8.31201C8.80611 8.27401 8.90298 8.25391 9.00098 8.25391H13.001C13.415 8.25391 13.751 8.58991 13.751 9.00391C13.751 9.41791 13.415 9.75391 13.001 9.75391H10.812L15.532 14.4741C15.823 14.7681 15.823 15.2429 15.53 15.5359Z" fill="currentColor"/>
</svg>

<svg xmlns="http://www.w3.org/2000/svg" width="24" height="24" fill="none"><path fill="currentColor" d="M17.625 3H6.375C4.125 3 3 4.125 3 6.375v11.25C3 19.875 4.125 21 6.375 21h11.25C19.875 21 21 19.875 21 17.625V6.375C21 4.125 19.875 3 17.625 3ZM15.53 15.536a.748.748 0 0 1-1.06 0l-4.72-4.72v2.189a.75.75 0 0 1-1.5 0v-4a.75.75 0 0 1 .464-.693.75.75 0 0 1 .287-.058h4a.75.75 0 0 1 0 1.5h-2.189l4.72 4.72a.753.753 0 0 1-.002 1.062Z"/></svg>
